img/icon/play-24.svg

<svg width="24" height="24" viewBox="0 0 24 24" fill="none" xmlns="http://www.w3.org/2000/svg">
<path d="M21 12C21 16.971 16.971 21 12 21C7.029 21 3 16.971 3 12C3 7.029 7.029 3 12 3C16.971 3 21 7.029 21 12Z" stroke="url(#paint0_linear)" stroke-width="1.5" stroke-linecap="round" stroke-linejoin="round"/>
<path d="M10.941 9.05783L14.823 11.3538C15.314 11.6438 15.314 12.3548 14.823 12.6448L10.941 14.9408C10.441 15.2368 9.80902 14.8758 9.80902 14.2948V9.70383C9.80902 9.12283 10.441 8.76183 10.941 9.05783V9.05783Z" stroke="url(#paint1_linear)" stroke-width="1.5" stroke-linecap="round" stroke-linejoin="round"/>
<defs>
<linearGradient id="paint0_linear" x1="3" y1="3" x2="3" y2="21" gradientUnits="userSpaceOnUse">
<stop stop-color="#5986FB"/>
<stop offset="1" stop-color="#2D4EF5"/>
</linearGradient>
<linearGradient id="paint1_linear" x1="9.80902" y1="8.95215" x2="9.80902" y2="15.0465" gradientUnits="userSpaceOnUse">
<stop stop-color="#5986FB"/>
<stop offset="1" stop-color="#2D4EF5"/>
</linearGradient>
</defs>
</svg>

<svg width="24" height="24" fill="none" xmlns="http://www.w3.org/2000/svg"><path d="M21 12a9 9 0 0 1-9 9 9 9 0 0 1-9-9 9 9 0 0 1 9-9 9 9 0 0 1 9 9z" stroke="url(#paint0_linear)" stroke-width="1.5" stroke-linecap="round" stroke-linejoin="round"/><path d="M10.941 9.058l3.882 2.296a.75.75 0 0 1 0 1.29l-3.882 2.297a.75.75 0 0 1-1.132-.646V9.704a.75.75 0 0 1 1.132-.646z" stroke="url(#paint1_linear)" stroke-width="1.5" stroke-linecap="round" stroke-linejoin="round"/><defs><linearGradient id="paint0_linear" x1="3" y1="3" x2="3" y2="21" gradientUnits="userSpaceOnUse"><stop stop-color="#5986FB"/><stop offset="1" stop-color="#2D4EF5"/></linearGradient><linearGradient id="paint1_linear" x1="9.809" y1="8.952" x2="9.809" y2="15.046" gradientUnits="userSpaceOnUse"><stop stop-color="#5986FB"/><stop offset="1" stop-color="#2D4EF5"/></linearGradient></defs></svg>
